X:1002
T:Mouse behind the Dresser, The
T:Mary O'Neill's Fancy
R:reel
Z:id:hn-reel-1002
M:C|
L:1/8
K:G
ge |: dBAB ~G3E | DG~G2 DGBe | dBAB ~G3A |1 Beed efge :|2 Beed e2ge ||
dB~B2 dBge | dB~B2 d2ge | dB~B2 ~g3d | (3efg dB ~A3B |
dB~B2 dBgf | edef ~g3a | bgaf gfed | (3efg fa g2 ||

